src/images/wordmark.inline.svg

<svg width="40" height="15" viewBox="0 0 40 15" fill="none" xmlns="http://www.w3.org/2000/svg">
<path d="M0.0200005 4.41703C0.33416 4.26804 0.655625 4.09277 0.999009 3.89119C1.34239 3.68963 1.67117 3.47929 1.99263 3.24266C2.3141 3.00604 2.62826 2.76065 2.9205 2.49773C3.22004 2.23482 3.48306 1.96314 3.72416 1.66516H5.40455V14.7234H2.99356V5.37229C2.67209 5.62645 2.30679 5.86308 1.91226 6.07341C1.51043 6.28374 1.12321 6.46778 0.750604 6.61677L0.0200005 4.41703Z" fill="#231F20"/>
<path d="M21.6903 1.69144C21.6903 2.21727 21.5514 2.62917 21.2666 2.92714C20.9816 3.22512 20.6528 3.3741 20.2656 3.3741C19.8784 3.3741 19.5496 3.22512 19.2647 2.92714C18.9798 2.62917 18.841 2.21727 18.841 1.69144C18.841 1.1656 18.9798 0.753696 19.2647 0.455723C19.557 0.148986 19.8857 0 20.2729 0C20.6602 0 20.9889 0.148986 21.2738 0.446959C21.5514 0.753696 21.6903 1.1656 21.6903 1.69144ZM21.515 14.7234H19.1039V4.64488H21.515V14.7234Z" fill="#231F20"/>
<path d="M26.2284 14.7232C25.6804 13.4437 25.1325 11.9538 24.5699 10.236C24.0074 8.5271 23.474 6.66039 22.9772 4.64468H25.4978C25.6074 5.14423 25.7316 5.67883 25.8777 6.26601C26.0238 6.84443 26.1699 7.43162 26.3306 8.02755C26.4841 8.6235 26.6375 9.20192 26.7982 9.76285C26.9517 10.3237 27.1051 10.832 27.2586 11.2965C27.3974 10.8408 27.5434 10.3237 27.7042 9.76285C27.865 9.20192 28.0257 8.6235 28.1791 8.02755C28.3325 7.43162 28.4859 6.84443 28.6247 6.26601C28.7709 5.68759 28.895 5.14423 29.0046 4.64468H31.4668C30.9627 6.66039 30.4366 8.5271 29.8741 10.236C29.3115 11.9451 28.7636 13.4437 28.2156 14.7232H26.2284Z" fill="#231F20"/>
<path d="M32.1018 9.74554C32.1018 8.85162 32.2188 8.06287 32.4453 7.39681C32.6718 6.72199 32.9786 6.16987 33.3512 5.71414C33.7238 5.26719 34.1549 4.92539 34.637 4.69753C35.1193 4.46967 35.6234 4.35574 36.1348 4.35574C37.3257 4.35574 38.2754 4.79393 38.9622 5.67033C39.6563 6.54672 39.9997 7.83501 39.9997 9.5352C39.9997 9.70172 39.9924 9.8858 39.9851 10.0786C39.9778 10.2802 39.9632 10.4554 39.9558 10.6044H34.5494C34.6006 11.1916 34.8343 11.6561 35.2362 12.0066C35.638 12.3484 36.1859 12.5237 36.8654 12.5237C37.3038 12.5237 37.7348 12.4799 38.1513 12.3835C38.575 12.2871 38.9184 12.1731 39.1814 12.0329L39.5029 14.3553C39.3714 14.4342 39.2034 14.5131 38.9914 14.5832C38.7796 14.6621 38.5385 14.7234 38.2828 14.7848C38.0198 14.8461 37.7422 14.89 37.4426 14.925C37.143 14.9601 36.8435 14.9864 36.5439 14.9864C35.7841 14.9864 35.1266 14.8549 34.5713 14.5832C34.0087 14.3116 33.5485 13.9435 33.1832 13.479C32.8178 13.0145 32.5402 12.4624 32.3649 11.8225C32.1895 11.174 32.1018 10.4817 32.1018 9.74554ZM37.6983 8.5887C37.691 8.34332 37.6545 8.10669 37.596 7.87882C37.5376 7.65097 37.4499 7.44063 37.3257 7.26535C37.2015 7.09008 37.0481 6.94109 36.8654 6.82716C36.6754 6.71323 36.449 6.65188 36.1714 6.65188C35.9083 6.65188 35.6746 6.70446 35.4846 6.81839C35.2946 6.92356 35.1338 7.07255 35.0024 7.24782C34.8709 7.42311 34.7759 7.63344 34.7102 7.87007C34.637 8.10669 34.5932 8.34332 34.5567 8.5887H37.6983Z" fill="#231F20"/>
<path d="M14.5754 1.66516H17.0595V14.7234H14.5754V9.20213H10.4841V14.7234H8V1.66516H10.4841V6.66059H14.5754V1.66516Z" fill="#231F20"/>
</svg>

<svg width="40" height="15" fill="none" xmlns="http://www.w3.org/2000/svg"><path d="M.02 4.417c.314-.149.636-.324.979-.526A12.168 12.168 0 0 0 2.92 2.498c.3-.263.563-.535.804-.833h1.68v13.058h-2.41v-9.35c-.322.253-.687.49-1.082.7-.402.21-.789.395-1.161.544l-.731-2.2zM21.69 1.691c0 .526-.139.938-.423 1.236-.285.298-.614.447-1.001.447-.388 0-.716-.149-1.001-.447-.285-.298-.424-.71-.424-1.236 0-.525.139-.937.424-1.235.292-.307.62-.456 1.008-.456.387 0 .716.149 1 .447.278.307.417.719.417 1.244zm-.175 13.032h-2.411V4.645h2.411v10.078zM26.228 14.723c-.548-1.28-1.096-2.77-1.658-4.487a76.449 76.449 0 0 1-1.593-5.591h2.52c.11.5.235 1.034.38 1.621.147.578.293 1.166.454 1.762.153.595.306 1.174.467 1.735.154.56.307 1.069.46 1.534.14-.456.285-.973.446-1.534.161-.561.322-1.14.475-1.735.154-.596.307-1.184.446-1.762.146-.578.27-1.122.38-1.621h2.462a80.272 80.272 0 0 1-1.593 5.591c-.563 1.71-1.11 3.208-1.658 4.487h-1.988zM32.102 9.746c0-.894.117-1.683.343-2.35a5.267 5.267 0 0 1 .906-1.682 3.778 3.778 0 0 1 1.286-1.016 3.484 3.484 0 0 1 1.498-.342c1.19 0 2.14.438 2.827 1.314C39.656 6.547 40 7.835 40 9.535c0 .167-.008.35-.015.544-.007.201-.022.376-.03.525H34.55c.052.588.285 1.052.687 1.403.402.341.95.517 1.63.517.438 0 .869-.044 1.285-.14.424-.097.767-.21 1.03-.351l.322 2.322c-.132.08-.3.158-.512.228-.211.08-.453.14-.708.202-.263.061-.54.105-.84.14-.3.035-.6.061-.9.061-.759 0-1.416-.131-1.972-.403a3.88 3.88 0 0 1-1.388-1.104 4.628 4.628 0 0 1-.818-1.656 7.927 7.927 0 0 1-.263-2.077zm5.596-1.157a3.234 3.234 0 0 0-.102-.71 1.854 1.854 0 0 0-.27-.614 1.604 1.604 0 0 0-.46-.438 1.315 1.315 0 0 0-.695-.175c-.263 0-.496.052-.686.166-.19.106-.351.255-.483.43a1.854 1.854 0 0 0-.292.622 4.779 4.779 0 0 0-.153.719h3.141zM14.575 1.665h2.485v13.058h-2.485v-5.52h-4.09v5.52H8V1.665h2.484v4.996h4.091V1.665z" fill="#231F20"/></svg>
